!!!ONB: MCCC : IWM0401_01 : Extracted Monophonic Melody
!!!COM: Mozart, Wolfgang Amadeus
!!!OPR: Piano Sonata No.1
!!!OMV: 1
!!!SCT: K.279 ; K⁶.189d
!!!ODT: 1774///
**kern
*thru
*staff1
*>A
*clefG2
*k[]
*C:
*M4/4
*met(c)
*MM120
=1
4cc:
8r
16cc
16b
16dd
16cc
16ee
16dd
16ff
16ee
16gg
16ff
=2
4aa:
16gg
16ff
16ee
16dd
16cc
16b
16cc
16ee
16dd
16ff
16b
16dd
=3
4cc:
8r
16cc
16b
16dd
16cc
16ee
16dd
16ff
16ee
16gg
16ff
=4
4aa:
16gg
16ff
16ee
16dd
16cc
16b
16cc
16ee
16dd
16ff
16b
16dd
=5
8cc
16cc
16b
8cc
8ee
4cc#
8dd
8r
=6
8r
16dd
16cc#
8dd
8ff
4dd#
8ee
8r
=7
8r
8gg
8ccc
8bb-
4gg#
8aa
8r
=8
4ccc
16bb
16aa
16gg
16ff
4ff#
8gg
8r
=9
4r
16g
16cc
16ee
16gg
4r
16a
16cc
16ff
16aa
=10
16aa
16gg
16ff
16ee
16ee
16dd
16ee
16ff
4ff
8ee
8r
=11
4r
16g
16cc
16ee
16gg
4r
16a
16cc
16ff
16aa
=12
16aa
16gg
16ff
16ee
16ee
16dd
16cc
16b
4cc
[4ee
=13
8ee]
8ff
8a
8b
4cc
[4ee
=14
8ee]
8ff
8a
8b
16cc
16b
16cc
16ee
16dd
16cc
16dd
16ff
=15
16ee
16dd
16ee
16gg
16ff
16ee
16ff
16aa
16gg
16ccc
16eee
16bb
16ccc
16gg
16aa
16ff
=16
8ee
8dd
4r
4dd
4dd
=17
[2bb
16bb]
16aa
16gg#
16ff
16ee
16dd
16cc
16b
=18
16dd
16cc
16b
16cc
16b
16cc
16dd
16cc
4cc
4cc
=19
[2aa
16aa]
16gg
16ff#
16ee
16dd
16cc
16b
16a
=20
4b
8dd
8dd
8.ee
16ff#
16aa
16gg
16ff#
16ee
=21
8dd
8r
16dd
16b
16dd
16b
8.ee
16ff#
16aa
16gg
16ff#
16ee
=22
8dd
16bb
16aa
16gg
16ff#
16ee
16dd
8cc
16aa
16gg
16ff#
16ee
16dd
16cc
=23
8b
16gg
16ff#
16ee
16dd
16cc
16b
8a
16ee
16dd
16cc
16b
16a
16g
=24
16f#
16dd
16bb
16aa
16gg
16ff#
16ee
16dd
16dd
16cc#
16aa
16gg
16ff#
16ee
16dd
16cc
=25
16cc
16b
16gg
16ff#
16ee
16dd
16cc
16b
4a
8.b
32a
32b
=26
4.cc
8b
8a
8a
8b
8b
=27
4.cc
8b
4a
4r
=28
4cc
4r
4ee
4r
=29
8a
8cc
8ee
8aa
8ccc
8aa
8ee
8cc
=30
4dd
16cc
16b
16a
16g
2a
=31
8g
16gg
16gg
16gg
16dd
16b
16g
8a
16aa
16aa
16aa
16ff#
16dd
16a
=32
8b
16bb
16bb
16bb
16gg
16dd
16b
16dd#
16ee
16cc
16a
16b
16cc
16a
16f#
=33
16g
16ff#
16gg
16ff#
16gg
16dd
16b
16g
16a
16gg#
16aa
16gg#
16aa
16ff#
16dd
16a
=34
16b
16aa#
16bb
16aa#
16bb
16gg
16dd
16b
16dd#
16ee
16cc
16a
16b
16cc
16a
16f#
=35
16g
16gg
16bb
16aa
16gg
16ff#
16ee
16dd
16cc
16b
16a
16g
16f#
16e
16d
16c#
=36
[2c
16c]
16d
16e
16d
16f#
16e
16d
16c
=37
2c
16B
16g
16f#
16g
16d
16dd
16cc#
16dd
=38
16b
16gg
16ff#
16gg
16dd
16bb
16aa
16bb
8gg
8r
4r
=39
*>A
*M4/4
4cc:
8r
16cc
16b
16dd
16cc
16ee
16dd
16ff
16ee
16gg
16ff
=40
4aa:
16gg
16ff
16ee
16dd
16cc
16b
16cc
16ee
16dd
16ff
16b
16dd
=41
4cc:
8r
16cc
16b
16dd
16cc
16ee
16dd
16ff
16ee
16gg
16ff
=42
4aa:
16gg
16ff
16ee
16dd
16cc
16b
16cc
16ee
16dd
16ff
16b
16dd
=43
8cc
16cc
16b
8cc
8ee
4cc#
8dd
8r
=44
8r
16dd
16cc#
8dd
8ff
4dd#
8ee
8r
=45
8r
8gg
8ccc
8bb-
4gg#
8aa
8r
=46
4ccc
16bb
16aa
16gg
16ff
4ff#
8gg
8r
=47
4r
16g
16cc
16ee
16gg
4r
16a
16cc
16ff
16aa
=48
16aa
16gg
16ff
16ee
16ee
16dd
16ee
16ff
4ff
8ee
8r
=49
4r
16g
16cc
16ee
16gg
4r
16a
16cc
16ff
16aa
=50
16aa
16gg
16ff
16ee
16ee
16dd
16cc
16b
4cc
[4ee
=51
8ee]
8ff
8a
8b
4cc
[4ee
=52
8ee]
8ff
8a
8b
16cc
16b
16cc
16ee
16dd
16cc
16dd
16ff
=53
16ee
16dd
16ee
16gg
16ff
16ee
16ff
16aa
16gg
16ccc
16eee
16bb
16ccc
16gg
16aa
16ff
=54
8ee
8dd
4r
4dd
4dd
=55
[2bb
16bb]
16aa
16gg#
16ff
16ee
16dd
16cc
16b
=56
16dd
16cc
16b
16cc
16b
16cc
16dd
16cc
4cc
4cc
=57
[2aa
16aa]
16gg
16ff#
16ee
16dd
16cc
16b
16a
=58
4b
8dd
8dd
8.ee
16ff#
16aa
16gg
16ff#
16ee
=59
8dd
8r
16dd
16b
16dd
16b
8.ee
16ff#
16aa
16gg
16ff#
16ee
=60
8dd
16bb
16aa
16gg
16ff#
16ee
16dd
8cc
16aa
16gg
16ff#
16ee
16dd
16cc
=61
8b
16gg
16ff#
16ee
16dd
16cc
16b
8a
16ee
16dd
16cc
16b
16a
16g
=62
16f#
16dd
16bb
16aa
16gg
16ff#
16ee
16dd
16dd
16cc#
16aa
16gg
16ff#
16ee
16dd
16cc
=63
16cc
16b
16gg
16ff#
16ee
16dd
16cc
16b
4a
8.b
32a
32b
=64
4.cc
8b
8a
8a
8b
8b
=65
4.cc
8b
4a
4r
=66
4cc
4r
4ee
4r
=67
8a
8cc
8ee
8aa
8ccc
8aa
8ee
8cc
=68
4dd
16cc
16b
16a
16g
2a
=69
8g
16gg
16gg
16gg
16dd
16b
16g
8a
16aa
16aa
16aa
16ff#
16dd
16a
=70
8b
16bb
16bb
16bb
16gg
16dd
16b
16dd#
16ee
16cc
16a
16b
16cc
16a
16f#
=71
16g
16ff#
16gg
16ff#
16gg
16dd
16b
16g
16a
16gg#
16aa
16gg#
16aa
16ff#
16dd
16a
=72
16b
16aa#
16bb
16aa#
16bb
16gg
16dd
16b
16dd#
16ee
16cc
16a
16b
16cc
16a
16f#
=73
16g
16gg
16bb
16aa
16gg
16ff#
16ee
16dd
16cc
16b
16a
16g
16f#
16e
16d
16c#
=74
[2c
16c]
16d
16e
16d
16f#
16e
16d
16c
=75
2c
16B
16g
16f#
16g
16d
16dd
16cc#
16dd
=76
16b
16gg
16ff#
16gg
16dd
16bb
16aa
16bb
8gg
8r
4r
=77
*>B
4g
8r
16g
16d
16b-
16g
16dd
16b-
16gg
16dd
16b-
16g
=78
4cc#
8r
16a
16e
16cc#
16a
16ee
16cc#
16aa
16ee
16cc#
16a
=79
4dd
8r
16a
16f
16dd
16a
16ff
16dd
16aa
16ff
16dd
16a
=80
4b
8r
16g
16d
16b
16g
16dd
16b
16gg
16dd
16b
16g
=81
4cc
8r
16g
16e
16cc
16g
16ee
16cc
16gg
16ee
16cc
16g
=82
4b-
8r
16f
16d
16b-
16f
16dd
16b-
16ff
16dd
16bb-
16aa
=83
16gg#
16bb
16ff
16bb
16ee
16bb
16dd
16bb
4cc
8aa
8gg
=84
16ff#
16aa
16ee-
16aa
16dd
16aa
16cc
16aa
4b-
8gg
8ff
=85
16ee
16gg
16dd
16gg
16cc
16gg
16b-
16gg
4a
4r
=86
8r
16aa
16bb
8ccc
8ccc
4ccc
8gg
8r
=87
8.ff
32ee
32ff
8gg
8ff
4dd#
8ee
8r
=88
8r
16ee
16ff
8gg
8gg
4gg
8dd
8r
=89
8.cc
32b
32cc
8dd
8cc
16b
16g
16cc
16a
16dd
16b
16ee
16cc
=90
4ff
4ddd
16ee
16cc
16ff
16dd
16gg
16ee
16aa
16ff
=91
4gg
4ccc
16b
16g
16cc
16a
16dd
16b
16ee
16cc
=92
4ff
4ddd
16ee
16cc
16ff
16dd
16gg
16ee
16aa
16ff
=93
4gg
4ccc
16bb
16gg
16ff#
16gg
16ccc
16gg
16ee
16cc
=94
16gg
16g
16f#
16g
16cc
16g
16e
16c
16g
16G
16A
16B
16c
16d
16e
16f#
=95
16g
16a
16b
16cc
16dd
16ee
16ff#
16gg
16gg#
16aa
16ff
16dd
16ee
16ff
16dd
16b
=96
4cc:
8r
16cc
16b
16dd
16cc
16ee
16dd
16ff
16ee
16gg
16ff
=97
4aa:
16gg
16ff
16ee
16dd
16cc
16b
16cc
16ee
16dd
16ff
16b
16dd
=98
4cc:
8r
16cc
16b
16dd
16cc
16ee
16dd
16ff
16ee
16gg
16ff
=99
4aa:
16gg
16ff
16ee
16dd
16cc
16b
16cc
16ee
16dd
16ff
16b
16dd
=100
8cc
16cc
16b
8cc
8gg
4ff
8ee
8r
=101
8r
8ee
8ccc
8ee
4gg
8ff
8r
=102
8r
8ff
8gg
8aa
4bb-
8cc#
8r
=103
8r
8ee
8ff
8gg
4aa-
8b
8r
=104
8r
8cc
4.gg
8ff#
[4ff
=105
8ff]
8ee
8.ee-
32dd
32ee-
4dd
[4bb
=106
8bb]
8ccc
8ee
8ff#
4gg
[4b
=107
8b]
8cc
8e
8f#
4g
4r
=108
4g
4g
[2ee
=109
16ee]
16g
16a
16cc#
16ee
16gg
16aa
16ccc#
16eee
16ddd
16ccc#
16bb-
16aa
16gg
16ff
16ee
=110
16gg
16ff
16ee
16ff
16ee
16ff
16gg
16ff
4f
4f
=111
[2dd
16dd]
16f
16g
16b
16dd
16ff
16gg
16bb
=112
16ddd
16ccc
16bb
16aa
16gg
16ff
16ee
16dd
4ee
8gg
8gg
=113
8.aa
16bb
16ddd
16ccc
16bb
16aa
8gg
8r
16gg
16ee
16gg
16ee
=114
8.aa
16bb
16ddd
16ccc
16bb
16aa
8gg
16eee
16ddd
16ccc
16bb
16aa
16gg
=115
8ff
16ddd
16ccc
16bb
16aa
16gg
16ff
8ee
16ccc
16bb
16aa
16gg
16ff
16ee
=116
8dd
16aa
16gg
16ff
16ee
16dd
16cc
4b
8g
8g
=117
8.a
16b
16dd
16cc
16b
16a
8g
8r
16g
16e
16g
16e
=118
8.a
16b
16dd
16cc
16b
16a
16g
16cc
16ee
16dd
16cc
16b
16a
16g
=119
16g
16f#
16dd
16cc
16b
16a
16g
16f
16f
16e
16cc
16b
16a
16g
16f
16e
=120
8d
8r
16d
16f
16a
16dd
4r
16e
16g
16b
16ee
=121
4r
16f
16a
16cc
16ff
4r
16ddd
16bb
16gg
16ff
=122
16dd
16b
16g
16f
4r
16cc
16b
16cc
16ee
16dd
16cc
16dd
16ff
=123
16ee
16dd
16ee
16gg
16ff
16ee
16ff
16aa
16gg
16ccc
16eee
16bb
16ccc
16gg
16aa
16ff
=124
8ee
8dd
16r
16gg
16ff
16ee
4dd
8.ee
32dd
32ee
=125
4.ff
8ee
8dd
8dd
8ee
8ee
=126
4.ff
8ee
4dd
4r
=127
4aa
4r
4ccc
4r
=128
8aa
8ccc
8ff
8aa
8dd
8ff
8a
8cc
=129
4gg
16ff
16ee
16dd
16cc
2dd
=130
8cc
16ccc
16ccc
16ccc
16gg
16ee
16cc
8dd
16ddd
16ddd
16ddd
16bb
16gg
16dd
=131
8ee
16eee
16eee
16eee
16ccc
16gg
16ee
16gg#
16aa
16ff
16dd
16ee
16ff
16dd
16b
=132
16cc
16b
16cc
16b
16cc
16g
16e
16c
16d
16cc#
16dd
16cc#
16dd
16b
16g
16d
=133
16e
16dd#
16ee
16dd#
16ee
16cc
16g
16e
16g#
16a
16f
16d
16e
16f
16d
16B
=134
16c
16cc
16ee
16dd
16cc
16b
16a
16g
16f
16e
16d
16c
16B
16A
16G
16F#
=135
[2F
16F]
16G
16A
16G
16B
16A
16G
16F
=136
2F
16E
16c
16B
16c
16G
16g
16f#
16g
=137
16e
16cc
16b
16cc
16g
16ee
16dd
16ee
16cc
16cc
16b
16cc
16ee
16cc
16gg
16ee
=138
4ccc
4ccc
4ccc
4r
==
*-
